!!!!SEGMENT: pl-wumfc--n50526_moniuszko-stanislaw--gdybym-mial-twoj-dar.krn
!!!cenid: 18xx:4080
!!!COM: Moniuszko, Stanisław
!!!COM-rismID: pe30008351
!!!CDT: 1819/05/05-1872/06/04
!!!CNT: Polish
!!!OTL: Gdybym miał twój dar
!!!PDT:
!!!AGN:
!!!YEC: Copyright 2022 Narodowy Instytut Fryderyka Chopina (https://polishscores.org)
!!!YEM: License CC-BY-4.0 (https://creativecommons.org/licenses/by/4.0)
!!!SMS-siglum: PL-Wumfc
!!!SMS-shelfmark: N50526
!!!SMS-shelfwork: W
!!!SMS-variant:
!!!SMS-altvar:
!!!NIFC-rismSourceID: 1001165484
!!!NIFC-rismChildID: 1001165484
!!!NIFC-islandoraID: pl-wumfc:6719
!!!URL-pdf-islandora: https://repozytorium.nifc.pl/islandora/object/pl-wumfc%3A6719/datastream/PDF/view
!!!URL-scan: https://polish.musicsources.pl/pl/lokalizacje/galeria/druki-muzyczne/12542 @EN{Scan on Polish Music Sources Website} @PL{Skany w portalu Dziedzictwo Muzyki Polskiej w otwartym dostępie}
!!!IIIF:
!!!ONB-nifc:
!!!AIN: 1 piano 1 soprn
!!!key: D
**kern	**kern	**dynam	**kern	**text	**dynam
*part2	*part2	*	*part1	*	*
*staff3	*staff2	*	*staff1	*	*
*I"PIANO.	*I"PIANO.	*	*I"ŚPIEW.	*	*
*Ipiano	*Ipiano	*	*Isoprn	*	*
*ICklav	*ICklav	*	*ICvox	*	*
*IGacmp	*IGacmp	*	*IGsolo	*	*
*clefF4	*clefG2	*	*clefG2	*	*
*k[f#c#]	*k[f#c#]	*	*k[f#c#]	*	*
*D:	*D:	*	*D:	*	*
*M2/4	*M2/4	*	*M2/4	*	*
=1	=1	=1	=1	=1	=1
!!LO:TX:B:a:t=Allegretto.
8AL 8D\	8f#L 8d/	p	2r	.	.
8A 8D\	8f# 8d/	.	.	.	.
8A 8D\	8f# 8d/	.	.	.	.
8AJ 8D\	8f#J 8d/	.	.	.	.
=2	=2	=2	=2	=2	=2
8AL 8D\	8f#L 8d/	.	8.d/	Gdy-	.
8A 8D\	8f# 8d/	.	.	.	.
.	.	.	16c#/	-bym	.
8A 8D\	8f# 8d/	.	8.e/	miał	.
8AJ 8D\	8f#J 8d/	.	.	.	.
.	.	.	16d/	twój	.
=3	=3	=3	=3	=3	=3
8AL 8D\	8f#L 8d/	.	4.f#/	dar,	.
8A 8D\	8f# 8d/	.	.	.	.
8A 8D\	8f# 8d/	.	.	.	.
8AJ 8D\	8f#J 8d/	.	8r	.	.
=4	=4	=4	=4	=4	=4
8AL 8D\	8f#L 8d/	.	8.f#/	pod-	.
8A 8D\	8f# 8d/	.	.	.	.
.	.	.	16e#X/	-bi-	.
8A 8D\	8f# 8d/	.	8.g/	-ja-	.
8AJ 8D\	8f#J 8d/	.	.	.	.
.	.	.	16f#/	-nia	.
=5	=5	=5	=5	=5	=5
8AL 8D\	8f#L 8d/	.	2a/	serc.	.
8A 8D\	8f# 8d/	.	.	.	.
8A 8D\	8f# 8d/	.	.	.	.
8AJ 8D\	8f#J 8d/	.	.	.	.
!!LO:LB:g=original
=6	=6	=6	=6	=6	=6
8AL 8D\	8f#L 8d/	<	8g#X/	nie-	.
8A 8D\	8f# 8d/	.	8a/	-bo	.
8A 8D\	8f# 8d/	.	8b\	o-	.
8AJ 8D\	8f#J 8d/	[[	8cc#\	-czu	.
=7	=7	=7	=7	=7	=7
4D 4DD/	8f#L 8d 8A/	f	(4.dd\	twych,	.
.	8f# 8d 8A/	.	.	.	.
4F# 4FF#/	8f# 8d 8A/	.	.	.	.
.	8f#J 8d 8A/	.	8f#/)	.	.
=8	=8	=8	=8	=8	=8
2AA/	8gL 8c# 8A/	>	8.b\	gło-	.
.	8g 8c# 8A/	.	.	.	.
.	.	.	16a/	-su	.
.	8g 8c# 8A/	.	8g/	sre-	.
.	8gJ 8c# 8A/	]]	8e/	-brny	.
=9	=9	=9	=9	=9	=9
*^	*	*	*	*	*
8A/L	2D\	8f#L 8d/	.	4.d/	dźwięk,	.
8A/	.	8f# 8d/	.	.	.	.
8A/	.	8f# 8d/	.	.	.	.
8A/J	.	8f#J 8d/	.	8r	.	.
*v	*v	*	*	*	*	*
=10	=10	=10	=10	=10	=10
8B\L	8f#L 8d/	p	8.d/	lub	.
8B\	8f# 8d/	.	.	.	.
.	.	.	16c#/	choć	.
8B\	8f# 8d/	.	8.e/	u-	.
8B\J	8f#J 8d/	.	.	.	.
.	.	.	16d/	-śmiech	.
=11	=11	=11	=11	=11	=11
8A#X\L	8f#L 8e 8c#/	.	4.f#/	twój...	.
8A#\	8f# 8e 8c#/	.	.	.	.
8A#\	8f# 8e 8c#/	.	.	.	.
8A#\J	8f#J 8e 8c#/	.	8r	.	.
!!LO:LB:g=original
=12	=12	=12	=12	=12	=12
8A\L	8f#L 8d#X 8cn/	<	8f#/	ach!	.
8A\	8f# 8d# 8c/	.	16r	.	.
.	.	.	16e#X/	to	.
8A\	8f# 8d# 8c/	.	8g/	praw-	.
8A\J	8f#J 8d# 8c/	[[	8f#/	-da!	.
=13	=13	=13	=13	=13	=13
!	!	!	!	!	!LO:DY:a
8G#X\L	8bL 8e 8B/	.	2b\	tak!	<[
8G#\	8b 8e 8B/	.	.	.	.
8G#\	8b 8e 8B/	.	.	.	.
8G#\J	8bJ 8e 8B/	.	.	.	.
=14	=14	=14	=14	=14	=14
!	!LO:TX:i:b:t=riten.	!	!LO:TX:i:a:t=riten.	!	!
8Gn\L	8bL 8e 8B/	f	8a#X/	gdy-	.
8G\	8b 8e 8B/	.	8b\	-bym	.
8G\	8b 8e#X 8B/	.	8.cc#\	miał	.
8G\J	8bJ 8e# 8B/	.	.	.	.
.	.	.	16b\	twój	.
=15	=15	=15	=15	=15	=15
8F#\L	8a#XL 8f# 8c#/	>	2a#X/	dar,	.
8F#\	8a# 8f# 8c#/	.	.	.	.
8F#\	8a# 8f# 8c#/	.	.	.	.
8F#\J	8a#J 8f# 8c#/	]]	.	.	.
=16	=16	=16	=16	=16	=16
8Fn\L	8anL 8d 8An/	p	8g#X/	pod-	.
8F\	8a 8d 8A/	.	8an/	-bi-	.
8F\	8a 8d#X 8A/	.	8.b\	-ja-	.
8F\J	8aJ 8d# 8A/	.	.	.	.
.	.	.	16a/	-nia	.
=17	=17	=17	=17	=17	=17
(4E\	8g#XL 8e 8B/	.	4.g#X/	serc,	.
.	8g# 8e 8B/	.	.	.	.
4D\)	8g# 8e 8B/	.	.	.	.
.	8g#J 8e 8B/	.	8r	.	.
!!LO:LB:g=original
=18	=18	=18	=18	=18	=18
8C#/	8r	.	8.gn/	nie-	.
8r	8gn 8e 8A/	.	.	.	.
.	.	.	16f#/	-bo	.
8AA/	8r	.	8g/	o-	.
8r	8a 8A/	.	8a/	-czu	.
=19	=19	=19	=19	=19	=19
8D\	8r	.	(4f#/	twych,	.
8r	8f# 8d 8A/	.	.	.	.
8AA/	8r	.	8a/)	.	.
8r	8a 8f# 8A/	.	8r	.	.
=20	=20	=20	=20	=20	=20
*^	*	*	*	*	*
!LO:TX:t=P:problem:błędne wyświetlanie łuku	!	!	!	!	!	!
(<8.G/L	[2AA\	8r	.	8.e/	gło-	.
.	.	8e 8A/	.	.	.	.
16F#/K	.	.	.	16d#X/	-su	.
8G/	.	8r	.	8.e/	sre-	.
8G#X/J	.	8e#X 8d 8B/	.	.	.	.
.	.	.	.	16b/	-brny	.
*v	*v	*	*	*	*	*
=21	=21	=21	=21	=21	=21
8A 8AA\])	8r	.	(4b/	dźwięk,	.
8r	8f# 8d/	.	.	.	.
(<4AA/	8r	.	8a/)	.	.
.	8a 8f# 8d/	.	8r	.	.
=22	=22	=22	=22	=22	=22
!	!	!	!	!	!LO:DY:a
.	.	.	(8qa/	.	<
4B 4BB\	8r	.	8.g/)	lub	.
.	8g 8d 8G/	.	.	.	.
.	.	.	16f#/	choć	.
4A 4C#\	8r	.	8.g/	u-	.
.	8g 8e/	f	.	.	.
.	.	.	16ee\	-śmiech	[[
=23	=23	=23	=23	=23	=23
2D 2DD/)	8r	>	[4ee\	twój	>
.	(8f#L 8d/	.	.	.	.
.	8g 8e/)	.	16ee\LL]	.	.
.	.	.	16dd\	.	.
.	8aJ 8f#/	]]	16a\	.	.
.	.	.	16f#\JJ	.	]]
!!LO:PB:g=original
=24	=24	=24	=24	=24	=24
*^	*	*	*	*	*
8D#X/L	2GG\	(8aL 8c#/	.	8.cc#\	mo-	.
8E/J	.	8g 8B/)	.	.	.	.
.	.	.	.	16b\	-że	.
4G/	.	8e/	.	8.g/	tak	.
.	.	8f#J 8d/	.	.	.	.
.	.	.	.	16f#/	jak	.
=25	=25	=25	=25	=25	=25	=25
8r	2AA\	2e 2c#/	p	4e/	ty	.
(8E/L	.	.	.	.	.	.
8A/	.	.	.	8r	.	.
[8E/J)	.	.	.	8e/	nie	.
=26	=26	=26	=26	=26	=26	=26
!	!	!	!	!	!	!LO:DY:a
8E/L]	2AA\	2g#X 2d/	.	4g#X/	ra-	p
(8E/	.	.	.	.	.	.
8B/	.	.	.	8f#/	-czył-	.
[8E/J)	.	.	.	8e/	-bym	.
=27	=27	=27	=27	=27	=27	=27
8E/L]	2AA\	4a 4c#/	.	4a/	dbać	.
(8E/	.	.	.	.	.	.
!	!	!	!	!	!	!LO:DY:a
8A 8F#/	.	8d#XL 8B#X/	.	8d#X/	na	<
[8E/J)	.	8eJ 8c#/	.	8e/	we-	[[
=28	=28	=28	=28	=28	=28	=28
*	*	*^	*	*	*	*
!	!	!	!	!	!	!	!LO:DY:a
8E/L]	2AA\	(4.fn/	2dn\	.	4.fn/	-stchnie-	>
(8E/	.	.	.	.	.	.	.
8G#X/	.	.	.	.	.	.	.
[8E/J)	.	8e/)	.	.	8e/	-nia,	]]
*	*	*v	*v	*	*	*	*
=29	=29	=29	=29	=29	=29	=29
8E/L]	2AA\	(4.e 4.c#/	.	4e/	łzy,	.
8E/J	.	.	.	.	.	.
([<4A/	.	.	.	4r	.	.
.	.	8f#X 8d/	.	.	.	.
*v	*v	*	*	*	*	*
=30	=30	=30	=30	=30	=30
8A\L]	8gL 8e/	.	2r	.	.
8d\	8b 8g/	.	.	.	.
8c#\	8a 8e/	.	.	.	.
8B\J)	8d/J)	.	.	.	.
!!LO:LB:g=original
=31	=31	=31	=31	=31	=31
*	*^	*	*	*	*
(4B-X\	(4g/	4.d\	>	2r	.	.
8A\)	8f#/)	.	]	.	.	.
8r	16r	8ryy	.	.	.	.
.	16Bn/	.	.	.	.	.
*	*v	*v	*	*	*	*
=32	=32	=32	=32	=32	=32
*^	*	*	*	*	*
(4G/	4GG\	(4e 4B/	>	4r	.	.
8F#/L	4AA\	8A/L)	]	8r	.	.
8E/J)	.	8c#J 8G/	.	8c#/	i	.
*v	*v	*	*	*	*	*
=33	=33	=33	=33	=33	=33
2D\	8dL 8A 8F#</	.	8.d/L	ser-	.
.	8d 8A 8F#</	.	.	.	.
.	.	.	16c#/Jk	.	.
.	8d 8A 8F#</	.	8.e/	-cu	.
.	8dJ 8A 8F#</	.	.	.	.
.	.	.	16d/	bym	.
=34	=34	=34	=34	=34	=34
8qqDD/	.	.	.	.	.
8.D\L	8f#L 8d 8A</	.	4.f#/	rzekł:	.
.	8f# 8d 8A</	.	.	.	.
16C#\K	.	.	.	.	.
8.E\	8f# 8d 8A</	.	.	.	.
.	8f#J 8d 8A</	.	8r	.	.
16D\Jk	.	.	.	.	.
=35	=35	=35	=35	=35	=35
2F#\	8f#L 8d 8A</	.	8.f#/	ser-	.
.	8f# 8d 8A</	.	.	.	.
.	.	.	16e#X/	-ce	.
.	8f# 8d 8A</	.	8.g/	mo-	.
.	8f#J 8d 8A</	.	.	.	.
.	.	.	16f#/	-żesz	.
=36	=36	=36	=36	=36	=36
8.F#\L	8aL 8d 8A</	.	2a/	spać!	.
.	8a 8d 8A</	.	.	.	.
16E#X\K	.	.	.	.	.
8F#\	8a 8d 8A</	.	.	.	.
8D\J	8f#J 8d 8A</	.	.	.	.
!!LO:LB:g=original
=37	=37	=37	=37	=37	=37
!	!	!LO:HP:b:t=cre-scen-do:ext2=cd	!	!	!LO:HP:a:t=cre-scen-do:ext2=cd:dur=2h
8EL 8AA\	8gL 8c# 8A</	<	8g#X/	bo	<
8E 8AA\	8g 8c# 8A</	.	8a/	na	.
8E 8AA\	8g 8c# 8A</	.	8b\	zie-	.
8EJ 8AA\	8gJ 8c# 8A</	.	8cc#\	-mi	.
=38	=38	=38	=38	=38	=38
8F#L 8D 8AA\	8f#L 8d 8A</	.	(4.dd\	tej	.
8F# 8D 8AA\	8f# 8d 8A</	.	.	.	.
8F# 8D 8AA\	8f# 8d 8A</	.	.	.	.
8F#J 8D 8AA\	8f#J 8d 8A</	.	8a/)	.	[[
=39	=39	=39	=39	=39	=39
8EL 8AA\	8gL 8c# 8A</	[	8b\	nie	.
8E 8AA\	8g 8c# 8A</	.	8cc#\	ma	.
8E 8AA\	8g 8c# 8A</	.	8dd\	pa-	.
8EJ 8AA\	8gJ 8c# 8A</	.	8ee\	-ry	.
=40	=40	=40	=40	=40	=40
8DL 8DD\	8f#L 8d 8A</	f	2ff#\	ci!	f
8D 8DD\	8f# 8d 8A</	.	.	.	.
8D 8DD\	8f# 8d 8A#X</	.	.	.	.
8DJ 8DD\	8f#J 8d 8A#</	.	.	.	.
=41	=41	=41	=41	=41	=41
8GL 8GG/	8gL 8e 8d 8B/	.	8.ee\	bo	.
!	!	!	!	!	!LO:HP:a
8G 8GG/	8g 8e 8d 8B/	>	.	.	>
.	.	.	16dd\	na	.
8G 8GG/	8g 8e 8d 8B/	.	8b\	zie-	.
8GJ 8GG/	8gJ 8e 8d 8B/	]]	8g/	-mi	]]
=42	=42	=42	=42	=42	=42
8AA\L	8f#L 8d/	.	(4f#/	tej	.
8A\	8f# 8d/	.	.	.	.
8F#\	8f# 8d/	.	8a\L	.	.
8D\J	8f#J 8d/	.	8dd\J)	.	.
!!LO:LB:g=original
=43	=43	=43	=43	=43	=43
!	!	!	!LO:TX:i:a:t=ritard.	!	!
(2E (2AA/	(2g (2c#/	sf	8.cc#\	nie	.
.	.	.	16a/	ma	.
.	.	.	(8g/	pa-	.
.	.	.	16qqa/LL	.	.
.	.	.	16qqg/JJ	.	.
.	.	.	16f#/)	.	.
.	.	.	16e/	-ry	.
=44	=44	=44	=44	=44	=44
!	!	!	!LO:TX:B:a:t=a tempo.	!	!
2D\))	8f#L 8d/))	.	4d/	ci.	.
.	8f# 8d/	.	.	.	.
.	8f# 8d/	.	4r	.	.
.	8f#J 8d/	.	.	.	.
=45	=45	=45	=45	=45	=45
8qB/	.	.	.	.	.
8.A\L	8f#L 8d/	>	2r	.	.
.	8f# 8d/	.	.	.	.
16G#X\K	.	.	.	.	.
8A\	8f# 8d/	.	.	.	.
8F#\J	8f#J 8d/	.	.	.	.
=46	=46	=46	=46	=46	=46
4.d\	8f#/L	.	2r	.	.
.	8f# 8F#</	.	.	.	.
.	8f# 8F#</	.	.	.	.
16rAA	8f#J 8d 8F#</	.	.	.	.
16AA\	.	.	.	.	.
=47	=47	=47	=47	=47	=47
8.GG#X\L	8f#L 8d 8F#</	.	2r	.	.
.	8f# 8d 8F#</	.	.	.	.
16BB\K	.	.	.	.	.
8AA\	8f# 8d 8F#</	.	.	.	.
8FF#\J	8f#J 8d 8F#</	]	.	.	.
=48	=48	=48	=48	=48	=48
2DD\	2f# 2d 2A< 2F#</	.	2r	.	.
==	==	==	==	==	==
*-	*-	*-	*-	*-	*-
!!!system-decoration: (p1){(p2)}
!!!RDF**kern: > = above
!!!RDF**kern: < = below
!!!ENC: Andrzej Gręziak
!!!END: 2022-08-19
!!!ENC: Kamil Watkowski
!!!END: 2022-09-24
